assets/icons/custom/pending.svg

<svg viewBox="0 0 16 16" xmlns="http://www.w3.org/2000/svg">
    <path d="M11.5167 14.6666C10.65 14.6666 9.90833 14.3583 9.29167 13.7416C8.675 13.1249 8.36667 12.3833 8.36667 11.5166C8.36667 10.6499 8.675 9.90828 9.29167 9.29161C9.90833 8.67494 10.65 8.36661 11.5167 8.36661C12.3833 8.36661 13.125 8.67494 13.7417 9.29161C14.3583 9.90828 14.6667 10.6499 14.6667 11.5166C14.6667 12.3833 14.3583 13.1249 13.7417 13.7416C13.125 14.3583 12.3833 14.6666 11.5167 14.6666ZM12.4833 13.1999L12.95 12.7333L11.7 11.4833V9.61661H11.05V11.7166L12.4833 13.1999ZM3 13.7666C2.72222 13.7666 2.48611 13.6694 2.29167 13.4749C2.09722 13.2805 2 13.0444 2 12.7666V3.06661C2 2.78883 2.08611 2.55272 2.25833 2.35828C2.43056 2.16383 2.57778 2.06661 2.7 2.06661H6.06667C6.14444 1.67772 6.33611 1.35828 6.64167 1.10828C6.94722 0.858276 7.3 0.733276 7.7 0.733276C8.1 0.733276 8.45278 0.858276 8.75833 1.10828C9.06389 1.35828 9.25556 1.67772 9.33333 2.06661H12.7C12.9778 2.06661 13.2139 2.16383 13.4083 2.35828C13.6028 2.55272 13.7 2.78883 13.7 3.06661V7.98328C13.5333 7.88328 13.3694 7.79716 13.2083 7.72494C13.0472 7.65272 12.8778 7.58883 12.7 7.53328V3.06661H10.9333V5.23328H4.76667V3.06661H3V12.7666H7.55C7.60556 12.9333 7.67222 13.0972 7.75 13.2583C7.82778 13.4194 7.92222 13.5888 8.03333 13.7666H3ZM8 2.99994C8.18889 2.99994 8.34722 2.93605 8.475 2.80828C8.60278 2.6805 8.66667 2.52217 8.66667 2.33328C8.66667 2.14439 8.60278 1.98605 8.475 1.85828C8.34722 1.7305 8.18889 1.66661 8 1.66661C7.81111 1.66661 7.65278 1.7305 7.525 1.85828C7.39722 1.98605 7.33333 2.14439 7.33333 2.33328C7.33333 2.52217 7.39722 2.6805 7.525 2.80828C7.65278 2.93605 7.81111 2.99994 8 2.99994Z"
          fill="inherit"/>
</svg>

<svg viewBox="0 0 16 16" xmlns="http://www.w3.org/2000/svg"><path d="M11.5 14.7a3 3 0 0 1-2.2-1 3 3 0 0 1-1-2.2 3 3 0 0 1 1-2.2 3 3 0 0 1 2.2-1 3 3 0 0 1 2.2 1 3 3 0 0 1 1 2.2 3 3 0 0 1-1 2.2 3 3 0 0 1-2.2 1Zm1-1.5.4-.5-1.2-1.2V9.6h-.6v2.1l1.4 1.5Zm-9.5.6a1 1 0 0 1-.7-.3 1 1 0 0 1-.3-.7V3c0-.3 0-.5.3-.7.1-.2.3-.3.4-.3h3.4c0-.4.2-.7.5-1C7 1 7.3.7 7.7.7c.4 0 .8.2 1 .4.4.3.6.6.6 1h3.4c.3 0 .5 0 .7.3.2.2.3.4.3.7V8a4.7 4.7 0 0 0-1-.5V3.1h-1.8v2.1H4.8V3.1H3v9.7h4.5a4.1 4.1 0 0 0 .5 1H3ZM8 3c.2 0 .3 0 .5-.2l.2-.5-.2-.4a.6.6 0 0 0-.5-.2c-.2 0-.3 0-.5.2l-.2.4.2.5.5.2Z" fill="inherit"/></svg>
